assets/symbols/mulberry/cold_drink_2.svg

<svg height="850.394" viewBox="0 0 850.394 850.394" width="850.394" xmlns="http://www.w3.org/2000/svg"><path d="m368 368.249h113.386v113.386h-113.386z" fill="none"/><path d="m461.45 335.69-39.7 376.77c0 41.66-57.68 75.43-128.84 75.43s-128.85-33.77-128.85-75.43l-39.76-377.38.2-.02c2.3 25.27 76.79 45.57 168.36 45.57 90.83 0 164.88-19.98 168.3-44.97z" fill="#faa41f"/><g fill="none"><g stroke="#231f20" stroke-width="14"><path d="m469.94 255.1c0 .97-.101 1.93-.301 2.89-5.39 25.8-82.45 46.26-176.729 46.26-94.28 0-171.35-20.46-176.74-46.26-.2-.96-.3-1.92-.3-2.89 0-27.16 79.27-49.17 177.04-49.17s177.03 22.01 177.03 49.17zm-8.66 78.75c0 .61-.04 1.21-.12 1.81-3.42 24.99-77.47 44.97-168.3 44.97-91.57 0-166.06-20.3-168.36-45.57-.04-.4-.06-.81-.06-1.21"/><path d="m115.87 255.1.3 2.89 8.13 77.09 39.76 377.38c0 41.66 57.69 75.43 128.85 75.43s128.84-33.77 128.84-75.43l39.7-376.77 8.189-77.7.301-2.89m221.25-183.57-67.63 109.33-.26.41-.01.03m94.83-78.84-51.91 11.02m-14.72-52.23 13.31 51.36m-109.26 178.2 67.61-109.29.13-.22.02-.03m-94.69 78.61 51.91-11.03m14.72 52.23-13.31-51.36m-26.6-179.14 68.03 109.99m-94.96-79.06 51.9 11.03m14.72-52.24-13.31 51.37"/><path d="m690.97 289.86-67.14-108.55-.27-.45-.34-.54m94.68 78.61-51.9-11.03m-14.73 52.24 13.31-51.36m88.12-67.47h-129.33m117.19 39.17-36.68-38.34m36.68-39.99-36.68 38.33m-209.02.82h128.8m-116.67-39.17 36.69 38.34m-36.69 40 36.69-38.34"/></g><path d="m0 0h850.394v850.394h-850.394z"/></g></svg>

<svg xmlns="http://www.w3.org/2000/svg" width="850.394" height="850.394" viewBox="0 0 850.394 850.394" overflow="visible"><path fill="none" d="M368 368.249h113.386v113.386H368z"/><path d="M461.45 335.69l-39.7 376.77c0 41.66-57.68 75.43-128.84 75.43s-128.85-33.77-128.85-75.43L124.3 335.08l.2-.02c2.3 25.27 76.79 45.57 168.36 45.57 90.83 0 164.88-19.98 168.3-44.97l.29.03z" fill="#faa41f"/><g fill="none" stroke="#231f20" stroke-width="14"><path d="M469.94 255.1c0 .97-.101 1.93-.301 2.89-5.39 25.8-82.45 46.26-176.729 46.26-94.28 0-171.35-20.46-176.74-46.26-.2-.96-.3-1.92-.3-2.89 0-27.16 79.27-49.17 177.04-49.17s177.03 22.01 177.03 49.17zM461.28 333.85c0 .61-.04 1.21-.12 1.81-3.42 24.99-77.47 44.97-168.3 44.97-91.57 0-166.06-20.3-168.36-45.57-.04-.4-.06-.81-.06-1.21"/><path d="M115.87 255.1l.3 2.89 8.13 77.09 39.76 377.38c0 41.66 57.69 75.43 128.85 75.43s128.84-33.77 128.84-75.43l39.7-376.77 8.189-77.7.301-2.89M691.19 71.53l-67.63 109.33-.26.41-.01.03M718.12 102.46l-51.91 11.02M651.49 61.25l13.31 51.36M555.54 290.81l67.61-109.29.13-.22.02-.03M528.61 259.88l51.91-11.03M595.24 301.08l-13.31-51.36M555.33 70.58l68.03 109.99M528.4 101.51l51.9 11.03M595.02 60.3l-13.31 51.37"/><path d="M690.97 289.86l-67.14-108.55-.27-.45-.34-.54M717.9 258.93L666 247.9M651.27 300.14l13.31-51.36M752.7 181.31H623.37M740.56 220.48l-36.68-38.34M740.56 142.15l-36.68 38.33M494.86 181.3H623.66M506.99 142.13l36.69 38.34M506.99 220.47l36.69-38.34"/></g><path fill="none" d="M0 0h850.394v850.394H0z"/></svg>
